storage/app/icons/phosphoricons/duotone/number-square-seven-duotone.svg

<svg xmlns="http://www.w3.org/2000/svg" fill="currentColor" viewBox="0 0 256 256"><path d="M216 48v160a8 8 0 0 1-8 8H48a8 8 0 0 1-8-8V48a8 8 0 0 1 8-8h160a8 8 0 0 1 8 8" opacity=".2"/><path d="M208 32H48a16 16 0 0 0-16 16v160a16 16 0 0 0 16 16h160a16 16 0 0 0 16-16V48a16 16 0 0 0-16-16m0 176H48V48h160zM158.55 83.41a8 8 0 0 1 1 7.32l-32 88A8 8 0 0 1 120 184a7.9 7.9 0 0 1-2.73-.48 8 8 0 0 1-4.79-10.25L140.58 96H104a8 8 0 0 1 0-16h48a8 8 0 0 1 6.55 3.41"/></svg>

<svg xmlns="http://www.w3.org/2000/svg" viewBox="0 0 256 256" fill="currentColor"><path d="M216,48V208a8,8,0,0,1-8,8H48a8,8,0,0,1-8-8V48a8,8,0,0,1,8-8H208A8,8,0,0,1,216,48Z" opacity="0.2"/><path d="M208,32H48A16,16,0,0,0,32,48V208a16,16,0,0,0,16,16H208a16,16,0,0,0,16-16V48A16,16,0,0,0,208,32Zm0,176H48V48H208V208ZM158.55,83.41a8,8,0,0,1,1,7.32l-32,88A8,8,0,0,1,120,184a7.9,7.9,0,0,1-2.73-.48,8,8,0,0,1-4.79-10.25L140.58,96H104a8,8,0,0,1,0-16h48A8,8,0,0,1,158.55,83.41Z"/></svg>
